app/img/email-icon.svg

<svg width="22" height="18" fill="none" xmlns="http://www.w3.org/2000/svg"><path d="M19 0H3C1.35 0 0 1.35 0 3v12c0 1.65 1.35 3 3 3h16c1.65 0 3-1.35 3-3V3c0-1.65-1.35-3-3-3zM3 2h16c.39 0 .72.23.89.56L11 8.78 2.11 2.56c.17-.33.5-.56.89-.56zm16 14H3c-.55 0-1-.45-1-1V4.92l8.43 5.9a.988.988 0 001.14 0L20 4.92V15c0 .55-.45 1-1 1z" fill="#FF715B"/></svg>

<svg width="22" height="18" viewBox="0 0 22 18" fill="none" xmlns="http://www.w3.org/2000/svg">
<path d="M19 0H3C1.35 0 0 1.35 0 3V15C0 16.65 1.35 18 3 18H19C20.65 18 22 16.65 22 15V3C22 1.35 20.65 0 19 0ZM3 2H19C19.39 2 19.72 2.23 19.89 2.56L11 8.78L2.11 2.56C2.28 2.23 2.61 2 3 2ZM19 16H3C2.45 16 2 15.55 2 15V4.92L10.43 10.82C10.6 10.94 10.8 11 11 11C11.2 11 11.4 10.94 11.57 10.82L20 4.92V15C20 15.55 19.55 16 19 16Z" fill="#FF715B"/>
</svg>
